src/images/grey-lamp.svg

<?xml version="1.0" encoding="UTF-8"?>
<svg width="100px" height="100px" viewBox="0 0 100 100" version="1.1" xmlns="http://www.w3.org/2000/svg" xmlns:xlink="http://www.w3.org/1999/xlink">
    <!-- Generator: Sketch 52.5 (67469) - http://www.bohemiancoding.com/sketch -->
    <title>Artboard</title>
    <desc>Created with Sketch.</desc>
    <defs>
        <linearGradient x1="50%" y1="0%" x2="50%" y2="100%" id="linearGradient-1">
            <stop stop-color="#F6F6F6" offset="0%"></stop>
            <stop stop-color="#E0E0E0" offset="100%"></stop>
        </linearGradient>
    </defs>
    <g id="Artboard" stroke="none" stroke-width="1" fill="none" fill-rule="evenodd">
        <path d="M54.2,57 C54.2,57 70.91,73.012 51.941,94.62 C51.7358416,94.8594112 51.4368403,94.9979482 51.1215551,94.9996752 C50.80627,95.0014023 50.5057689,94.8661493 50.298,94.629 C31.082,73.239 47.609,57.037 47.609,57.037 L50.904,57.019 L54.2,57 Z" id="Path" fill="url(#linearGradient-1)"></path>
        <path d="M54.2,57 C54.2,57 70.91,73.012 51.941,94.62 C51.7358416,94.8594112 51.4368403,94.9979482 51.1215551,94.9996752 C50.80627,95.0014023 50.5057689,94.8661493 50.298,94.629 C49.1510663,93.3580581 48.0632482,92.034991 47.038,90.664 C56.987,78.694 58.275,67.478 50.904,57.019 L54.2,57 Z" id="Path" fill-opacity="0.05" fill="#000000"></path>
        <path d="M48,59 L45.184,80 C42.236,70.56 45.409,63.084 48,59 Z" id="Path" fill-opacity="0.4" fill="#FFFFFF"></path>
        <path d="M46.813,50.31 L46.795,47.17 C46.7927808,46.5474699 47.2944815,46.0404034 47.917,46.036 L54.042,46 C54.662,45.997 55.172,46.502 55.176,47.122 L55.195,50.364 L55.273,50.364 C56.155,50.371 56.887,51.106 56.903,51.998 L57,57.387 C57.0113462,57.8112309 56.8505775,58.2220062 56.5542845,58.5258336 C56.2579916,58.829661 55.851382,59.000692 55.427,59 L46.727,58.942 C45.847,58.937 45.112,58.202 45.097,57.309 L45,51.92 C44.9886484,51.4958606 45.1494475,51.0851845 45.4457708,50.7815143 C45.7420942,50.4778441 46.1487098,50.3070374 46.573,50.308 L46.813,50.31 Z" id="Path" fill="#000000"></path>
    </g>
</svg>

<svg width="100" height="100" xmlns="http://www.w3.org/2000/svg"><defs><linearGradient x1="50%" y1="0%" x2="50%" y2="100%" id="a"><stop stop-color="#F6F6F6" offset="0%"/><stop stop-color="#E0E0E0" offset="100%"/></linearGradient></defs><g fill="none" fill-rule="evenodd"><path d="M54.2 57s16.71 16.012-2.259 37.62a1.087 1.087 0 0 1-1.643.009c-19.216-21.39-2.689-37.592-2.689-37.592l3.295-.018L54.2 57z" fill="url(#a)"/><path d="M54.2 57s16.71 16.012-2.259 37.62a1.087 1.087 0 0 1-1.643.009 55.782 55.782 0 0 1-3.26-3.965c9.949-11.97 11.237-23.186 3.866-33.645L54.2 57z" fill-opacity=".05" fill="#000"/><path d="M48 59l-2.816 21c-2.948-9.44.225-16.916 2.816-21z" fill-opacity=".4" fill="#FFF"/><path d="M46.813 50.31l-.018-3.14a1.13 1.13 0 0 1 1.122-1.134L54.042 46c.62-.003 1.13.502 1.134 1.122l.019 3.242h.078c.882.007 1.614.742 1.63 1.634L57 57.387A1.571 1.571 0 0 1 55.427 59l-8.7-.058c-.88-.005-1.615-.74-1.63-1.633L45 51.92a1.57 1.57 0 0 1 1.573-1.612l.24.002z" fill="#000"/></g></svg>
